static/images/principles/pr-arrow.svg

<svg width="58" height="57" viewBox="0 0 58 57" fill="none" xmlns="http://www.w3.org/2000/svg">
<path d="M28.4752 55.9191L42.733 42.3048C42.9501 42.0975 43.08 41.8074 43.0827 41.506L43.3543 14.1052C43.3645 13.1159 42.1744 12.5999 41.4578 13.2842L28.1077 26.0317L16.9401 14.3363C16.2559 13.6197 15.0433 14.0801 15.0077 15.0688L14.0146 42.4445C14.0034 42.7458 14.1156 43.0371 14.3271 43.2586L26.3655 55.8661C26.9378 56.4654 27.8845 56.4831 28.4795 55.9149L28.4752 55.9191Z" fill="#0BA6E2"/>
<path d="M28.1083 26.0311L16.9407 14.3356C15.3515 12.9998 14.3632 14.2618 14.3277 15.2505L14.0152 42.4439C14.004 42.7451 14.1162 43.0365 14.3277 43.258L26.3661 55.8655C26.9384 56.4648 27.8851 56.4824 28.4801 55.9143L42.7379 42.3C42.955 42.0927 43.2327 41.6532 42.8803 41.284" fill="url(#paint0_linear_287_5966)"/>
<defs>
<linearGradient id="paint0_linear_287_5966" x1="29.7968" y1="27.5821" x2="13.8713" y2="42.7887" gradientUnits="userSpaceOnUse">
<stop stop-color="#FF0025"/>
<stop offset="1" stop-color="#FF0025"/>
</linearGradient>
</defs>
</svg>

<svg xmlns="http://www.w3.org/2000/svg" width="58" height="57" fill="none" viewBox="0 0 58 57"><path fill="#0ba6e2" d="m28.475 55.92 14.258-13.615c.217-.208.347-.498.35-.799l.271-27.4c.01-.99-1.18-1.506-1.896-.822l-13.35 12.748L16.94 14.336c-.684-.716-1.897-.256-1.932.733l-.993 27.375c-.012.302.1.593.312.815l12.039 12.607c.572.6 1.518.617 2.114.049z"/><path fill="url(#a)" d="M28.108 26.031 16.941 14.336c-1.59-1.336-2.578-.074-2.613.915l-.313 27.193c-.011.301.101.592.313.814l12.038 12.607c.572.6 1.52.617 2.114.05L42.738 42.3c.217-.207.495-.647.142-1.016"/><defs><linearGradient id="a" x1="29.797" x2="13.871" y1="27.582" y2="42.789" gradientUnits="userSpaceOnUse"><stop stop-color="#ff0025"/><stop offset="1" stop-color="#ff0025"/></linearGradient></defs></svg>
